app/assets/icon/github_logo.svg

<svg width="21" height="20" viewBox="0 0 21 20" xmlns="http://www.w3.org/2000/svg">
<path id="githubIcon" fill-rule="evenodd" clip-rule="evenodd" d="M10.2439 0.0376955C7.81203 0.0352238 5.45878 0.898855 3.60585 2.47383C1.75292 4.0488 0.521414 6.23216 0.132045 8.63264C-0.257323 11.0331 0.220893 13.4938 1.48098 15.5737C2.74107 17.6536 4.70068 19.2168 7.00863 19.9832C7.51747 20.0774 7.70593 19.757 7.70593 19.4869C7.70593 19.2168 7.70593 18.6011 7.70593 17.7468C4.86017 18.375 4.25709 16.3773 4.25709 16.3773C4.06747 15.7581 3.66462 15.2262 3.12004 14.8759C2.19658 14.2477 3.19542 14.2477 3.19542 14.2477C3.51913 14.2934 3.82819 14.4122 4.0992 14.595C4.37021 14.7779 4.59607 15.02 4.75965 15.3031C4.89865 15.5551 5.08604 15.7772 5.31109 15.9566C5.53613 16.1361 5.7944 16.2693 6.07106 16.3487C6.34771 16.4281 6.63732 16.452 6.92327 16.4192C7.20921 16.3864 7.48586 16.2974 7.73734 16.1574C7.77676 15.6406 7.99956 15.1549 8.36554 14.7879C6.09144 14.5304 3.70427 13.6509 3.70427 9.73089C3.68865 8.71507 4.06427 7.73215 4.75337 6.98563C4.44584 6.10249 4.48172 5.13599 4.85388 4.27807C4.85388 4.27807 5.71452 4.00166 7.66823 5.32717C9.34591 4.86655 11.1167 4.86655 12.7944 5.32717C14.7481 4.00166 15.6025 4.27807 15.6025 4.27807C15.9785 5.13477 16.0167 6.10198 15.7093 6.98563C16.3983 7.73215 16.774 8.71507 16.7584 9.73089C16.7584 13.6634 14.3649 14.5241 12.0845 14.7565C12.329 15.0023 12.5178 15.2978 12.6382 15.623C12.7585 15.9481 12.8075 16.2954 12.7818 16.6411C12.7818 18.0106 12.7818 19.1163 12.7818 19.4492C12.7818 19.7822 12.964 20.0397 13.4854 19.9455C15.7861 19.1719 17.7372 17.6062 18.9906 15.5277C20.2441 13.4491 20.7185 10.9929 20.3291 8.5971C19.9397 6.20129 18.712 4.02168 16.8648 2.44706C15.0176 0.872436 12.6711 0.00518787 10.2439 0V0.0376955Z" fill="white"/>
</svg>

<svg width="21" height="20" xmlns="http://www.w3.org/2000/svg"><path fill-rule="evenodd" clip-rule="evenodd" d="M10.244.038a10.233 10.233 0 0 0-3.235 19.945c.508.094.697-.226.697-.496v-1.74c-2.846.628-3.449-1.37-3.449-1.37a2.739 2.739 0 0 0-1.137-1.501c-.923-.628.075-.628.075-.628a2.155 2.155 0 0 1 1.565 1.055 2.186 2.186 0 0 0 2.977.854c.04-.516.263-1.002.629-1.37-2.275-.257-4.662-1.136-4.662-5.056a3.958 3.958 0 0 1 1.05-2.745 3.725 3.725 0 0 1 .1-2.708s.86-.276 2.814 1.05a9.68 9.68 0 0 1 5.126 0c1.954-1.326 2.808-1.05 2.808-1.05a3.7 3.7 0 0 1 .107 2.708 3.958 3.958 0 0 1 1.05 2.745c0 3.932-2.394 4.793-4.675 5.026a2.42 2.42 0 0 1 .698 1.884v2.808c0 .333.182.59.703.496A10.24 10.24 0 0 0 10.244 0v.038Z"/></svg>
